packages/icons/raw/imported/SportIceHockey.svg

<svg width="32" height="32" viewBox="0 0 32 32" fill="none" xmlns="http://www.w3.org/2000/svg">
<path d="M24.8901 5.21289C25.0077 4.96303 24.9004 4.66517 24.6506 4.54759C24.4007 4.43001 24.1028 4.53725 23.9853 4.78711L24.8901 5.21289ZM19.0951 15.702L18.6486 15.4771L18.6484 15.4774L19.0951 15.702ZM12.0252 24.2047C12.3013 24.2047 12.5252 23.9809 12.5252 23.7047C12.5252 23.4286 12.3013 23.2047 12.0252 23.2047V24.2047ZM21.6123 23.1939C21.8782 23.1194 22.0334 22.8435 21.9589 22.5776C21.8844 22.3117 21.6085 22.1565 21.3426 22.231L21.6123 23.1939ZM14.0197 22.231C13.7538 22.1565 13.4779 22.3117 13.4034 22.5776C13.3289 22.8435 13.4841 23.1194 13.75 23.1939L14.0197 22.231ZM20.8216 20.6173C20.7142 20.8718 20.8335 21.165 21.0879 21.2724C21.3423 21.3797 21.6356 21.2605 21.7429 21.006L20.8216 20.6173ZM27.4607 7.45257C27.568 7.19814 27.4488 6.90487 27.1943 6.79754C26.9399 6.6902 26.6467 6.80945 26.5393 7.06388L27.4607 7.45257ZM23.9853 4.78711C22.6599 7.60356 19.0485 14.683 18.6486 15.4771L19.5417 15.9269C19.9336 15.1486 23.5571 8.04546 24.8901 5.21289L23.9853 4.78711ZM18.6484 15.4774C18.3755 16.0204 18.1649 16.2569 17.8921 16.3935C17.59 16.5448 17.1349 16.6142 16.2672 16.6142V17.6142C17.1386 17.6142 17.8076 17.5542 18.3398 17.2877C18.9012 17.0065 19.2351 16.5369 19.5419 15.9265L18.6484 15.4774ZM16.2672 16.6142H6.36923V17.6142H16.2672V16.6142ZM6.36923 16.6142C5.90345 16.6142 5.4966 16.7467 5.17818 17.0151C4.86418 17.2798 4.67885 17.6405 4.58412 18.0241C4.39851 18.7756 4.53484 19.7073 4.84757 20.5784C5.16414 21.4602 5.68579 22.3491 6.35238 23.0259C7.016 23.6996 7.86758 24.2047 8.83429 24.2047V23.2047C8.22911 23.2047 7.61839 22.8861 7.0648 22.3241C6.51418 21.7651 6.06371 21.0064 5.78876 20.2405C5.50997 19.464 5.43537 18.7481 5.55495 18.2639C5.61281 18.0296 5.7091 17.8754 5.82268 17.7797C5.93185 17.6877 6.09855 17.6142 6.36923 17.6142V16.6142ZM8.83429 24.2047H12.0252V23.2047H8.83429V24.2047ZM17.6812 19.9095C16.0608 19.9095 14.5902 20.1383 13.5077 20.507C12.9691 20.6904 12.5003 20.9174 12.1559 21.1881C11.8206 21.4517 11.5252 21.8217 11.5252 22.2925H12.5252C12.5252 22.269 12.5421 22.1565 12.7738 21.9743C12.9965 21.7993 13.3496 21.6173 13.8302 21.4536C14.7862 21.1279 16.1436 20.9095 17.6812 20.9095V19.9095ZM11.5252 22.2925V25.117H12.5252V22.2925H11.5252ZM11.5252 25.117C11.5252 25.5878 11.8206 25.9578 12.1559 26.2214C12.5003 26.4921 12.9691 26.719 13.5077 26.9025C14.5902 27.2712 16.0608 27.5 17.6812 27.5V26.5C16.1436 26.5 14.7862 26.2816 13.8302 25.9559C13.3496 25.7922 12.9965 25.6102 12.7738 25.4352C12.5421 25.253 12.5252 25.1405 12.5252 25.117H11.5252ZM17.6812 27.5C19.3015 27.5 20.7721 27.2712 21.8546 26.9025C22.3932 26.719 22.862 26.4921 23.2064 26.2214C23.5417 25.9578 23.8371 25.5878 23.8371 25.117H22.8371C22.8371 25.1405 22.8202 25.253 22.5885 25.4352C22.3658 25.6102 22.0127 25.7922 21.5321 25.9559C20.5761 26.2816 19.2187 26.5 17.6812 26.5V27.5ZM23.8371 25.117V22.2925H22.8371V25.117H23.8371ZM23.8371 22.2925C23.8371 21.8217 23.5417 21.4517 23.2064 21.1881C22.862 20.9174 22.3932 20.6904 21.8546 20.507C20.7721 20.1383 19.3015 19.9095 17.6812 19.9095V20.9095C19.2187 20.9095 20.5761 21.1279 21.5321 21.4536C22.0127 21.6173 22.3658 21.7993 22.5885 21.9743C22.8202 22.1565 22.8371 22.269 22.8371 22.2925H23.8371ZM21.3426 22.231C18.9479 22.9017 16.4144 22.9017 14.0197 22.231L13.75 23.1939C16.3211 23.9141 19.0412 23.9141 21.6123 23.1939L21.3426 22.231ZM21.7429 21.006L27.4607 7.45257L26.5393 7.06388L20.8216 20.6173L21.7429 21.006Z" fill="black"/>
</svg>

<svg width="32" height="32" fill="none" xmlns="http://www.w3.org/2000/svg"><path d="M24.89 5.213a.5.5 0 0 0-.905-.426l.905.426Zm-5.795 10.489-.446-.225.446.225Zm-7.07 8.503a.5.5 0 1 0 0-1v1Zm9.587-1.011a.5.5 0 1 0-.27-.963l.27.963Zm-7.592-.963a.5.5 0 1 0-.27.963l.27-.963Zm6.802-1.614a.5.5 0 1 0 .92.389l-.92-.389ZM27.46 7.453a.5.5 0 0 0-.922-.39l.922.39Zm-3.476-2.666c-1.325 2.817-4.936 9.896-5.336 10.69l.893.45c.392-.778 4.015-7.882 5.348-10.714l-.905-.426Zm-5.337 10.69c-.273.543-.483.78-.756.916-.302.152-.757.221-1.625.221v1c.872 0 1.54-.06 2.073-.326.561-.282.895-.751 1.202-1.361l-.894-.45Zm-2.38 1.137H6.368v1h9.898v-1Zm-9.899 0c-.466 0-.872.133-1.19.401-.315.265-.5.625-.595 1.01-.185.75-.05 1.682.264 2.553.316.882.838 1.771 1.504 2.448.664.674 1.516 1.179 2.482 1.179v-1c-.605 0-1.216-.319-1.77-.88-.55-.56-1-1.319-1.275-2.084-.279-.777-.354-1.493-.234-1.977.058-.234.154-.389.268-.484.109-.092.276-.166.546-.166v-1Zm2.465 7.59h3.191v-1h-3.19v1Zm8.847-4.294c-1.62 0-3.09.228-4.173.597-.539.183-1.008.41-1.352.681-.335.264-.63.634-.63 1.105h1c0-.024.016-.136.248-.319.223-.175.576-.357 1.056-.52.956-.326 2.314-.544 3.851-.544v-1Zm-6.156 2.383v2.824h1v-2.825h-1Zm0 2.824c0 .47.296.84.63 1.104.345.271.814.498 1.353.681 1.082.37 2.553.598 4.173.598v-1c-1.537 0-2.895-.218-3.85-.544-.481-.164-.835-.346-1.057-.52-.232-.183-.249-.296-.249-.319h-1Zm6.156 2.383c1.62 0 3.091-.229 4.174-.598.538-.183 1.007-.41 1.351-.68.336-.264.631-.634.631-1.105h-1c0 .023-.017.136-.248.318-.223.175-.576.357-1.057.52-.956.327-2.313.545-3.85.545v1Zm6.156-2.383v-2.825h-1v2.825h1Zm0-2.825c0-.47-.295-.84-.63-1.104-.345-.27-.814-.498-1.352-.681-1.083-.369-2.553-.598-4.174-.598v1c1.538 0 2.895.219 3.851.545.48.163.834.345 1.056.52.232.183.25.295.25.319h1Zm-2.494-.061c-2.395.67-4.929.67-7.323 0l-.27.963c2.571.72 5.291.72 7.862 0l-.27-.963Zm.4-1.225L27.46 7.453l-.922-.39-5.717 13.554.92.389Z" fill="#000"/></svg>
